svg/fluentui-system-icons/ic_fluent_textbox_20_filled.svg

<svg width="20" height="20" viewBox="0 0 20 20" fill="none" xmlns="http://www.w3.org/2000/svg">
<path d="M17 5.5C17 4.11929 15.8807 3 14.5 3H5.5C4.11929 3 3 4.11929 3 5.5V14.5C3 15.8807 4.11929 17 5.5 17H14.5C15.8807 17 17 15.8807 17 14.5V5.5ZM6 6.75C6 6.33579 6.31603 6 6.70588 6H13.2941C13.684 6 14 6.33579 14 6.75C14 7.16421 13.684 7.5 13.2941 7.5H6.70588C6.31603 7.5 6 7.16421 6 6.75ZM6 9.75C6 9.33579 6.31603 9 6.70588 9H10.2941C10.684 9 11 9.33579 11 9.75C11 10.1642 10.684 10.5 10.2941 10.5H6.70588C6.31603 10.5 6 10.1642 6 9.75ZM6.70588 12H13.2941C13.684 12 14 12.3358 14 12.75C14 13.1642 13.684 13.5 13.2941 13.5H6.70588C6.31603 13.5 6 13.1642 6 12.75C6 12.3358 6.31603 12 6.70588 12Z" fill="#212121"/>
</svg>

<svg xmlns="http://www.w3.org/2000/svg" width="20" height="20"><path d="M17 5.5A2.5 2.5 0 0 0 14.5 3h-9A2.5 2.5 0 0 0 3 5.5v9A2.5 2.5 0 0 0 5.5 17h9a2.5 2.5 0 0 0 2.5-2.5v-9ZM6 6.75c0-.414.316-.75.706-.75h6.588c.39 0 .706.336.706.75s-.316.75-.706.75H6.706C6.316 7.5 6 7.164 6 6.75Zm0 3c0-.414.316-.75.706-.75h3.588c.39 0 .706.336.706.75s-.316.75-.706.75H6.706c-.39 0-.706-.336-.706-.75ZM6.706 12h6.588c.39 0 .706.336.706.75s-.316.75-.706.75H6.706c-.39 0-.706-.336-.706-.75s.316-.75.706-.75Z"/></svg>
